src/gui/emoticons/whiteflag.svg

<svg xmlns="http://www.w3.org/2000/svg" xmlns:xlink="http://www.w3.org/1999/xlink" width="16pt" height="16pt" version="1.1" viewBox="0 0 16 16"><defs><linearGradient id="linear0" x1="4.441" x2="168.77" y1="6.477" y2="84.143" gradientTransform="matrix(0.125,0,0,0.125,0,0)" gradientUnits="userSpaceOnUse"><stop offset="0" style="stop-color:#fafafa;stop-opacity:1"/><stop offset=".999" style="stop-color:#eee;stop-opacity:1"/></linearGradient><filter id="alpha" width="100%" height="100%" x="0%" y="0%" filterUnits="objectBoundingBox"><feColorMatrix in="SourceGraphic" type="matrix" values="0 0 0 0 1 0 0 0 0 1 0 0 0 0 1 0 0 0 1 0"/></filter><mask id="mask0"><g filter="url(#alpha)"><rect width="16" height="16" x="0" y="0" style="fill:#000;fill-opacity:.2;stroke:none"/></g></mask><clipPath id="clip1"><rect width="16" height="16"/></clipPath><g id="surface8" clip-path="url(#clip1)"><path style="stroke:none;fill-rule:nonzero;fill:#424242;fill-opacity:1" d="M 11.527344 1.082031 C 12.035156 1.082031 12.488281 1.136719 12.914062 1.246094 C 12.9375 1.253906 12.957031 1.269531 12.960938 1.289062 L 14.367188 5.726562 L 14.945312 7.558594 C 14.5625 7.488281 14.160156 7.453125 13.726562 7.453125 C 13.125 7.453125 12.476562 7.519531 11.671875 7.664062 C 11.316406 7.726562 10.957031 7.800781 10.609375 7.871094 C 9.738281 8.046875 8.839844 8.230469 7.953125 8.265625 C 7.835938 8.269531 7.71875 8.273438 7.597656 8.273438 C 6.304688 8.273438 4.988281 7.996094 3.753906 7.6875 L 1.769531 1.414062 C 2.921875 1.6875 4.136719 1.914062 5.351562 1.914062 C 5.480469 1.914062 5.609375 1.910156 5.734375 1.90625 C 6.683594 1.867188 7.613281 1.679688 8.511719 1.496094 C 8.855469 1.425781 9.210938 1.351562 9.558594 1.289062 C 10.363281 1.144531 10.96875 1.082031 11.527344 1.082031 M 11.527344 0.707031 C 10.851562 0.707031 10.167969 0.796875 9.492188 0.921875 C 8.238281 1.144531 6.996094 1.480469 5.722656 1.53125 C 5.597656 1.535156 5.472656 1.539062 5.351562 1.539062 C 3.953125 1.539062 2.5625 1.234375 1.210938 0.886719 L 3.460938 8 C 4.8125 8.347656 6.203125 8.652344 7.597656 8.652344 C 7.722656 8.652344 7.847656 8.648438 7.96875 8.644531 C 9.242188 8.59375 10.484375 8.257812 11.742188 8.035156 C 12.398438 7.917969 13.066406 7.828125 13.726562 7.828125 C 14.183594 7.828125 14.636719 7.871094 15.078125 7.972656 C 15.097656 7.976562 15.117188 7.976562 15.136719 7.976562 C 15.296875 7.976562 15.421875 7.816406 15.371094 7.652344 C 14.941406 6.296875 13.636719 2.179688 13.320312 1.175781 C 13.273438 1.03125 13.15625 0.925781 13.011719 0.886719 C 12.523438 0.757812 12.027344 0.707031 11.527344 0.707031 Z M 11.527344 0.707031"/></g><mask id="mask1"><g filter="url(#alpha)"><rect width="16" height="16" x="0" y="0" style="fill:#000;fill-opacity:.2;stroke:none"/></g></mask><clipPath id="clip2"><rect width="16" height="16"/></clipPath><g id="surface11" clip-path="url(#clip2)"><path style="stroke:none;fill-rule:nonzero;fill:#424242;fill-opacity:1" d="M 1.179688 0.746094 C 1.308594 0.746094 1.421875 0.828125 1.457031 0.953125 L 5.855469 15.0625 C 5.859375 15.074219 5.855469 15.085938 5.851562 15.09375 C 5.847656 15.097656 5.839844 15.109375 5.828125 15.113281 L 5.347656 15.261719 C 5.34375 15.261719 5.339844 15.265625 5.335938 15.265625 C 5.320312 15.265625 5.300781 15.253906 5.296875 15.234375 L 0.902344 1.125 C 0.878906 1.050781 0.886719 0.972656 0.921875 0.902344 C 0.960938 0.832031 1.019531 0.78125 1.09375 0.761719 C 1.125 0.75 1.152344 0.746094 1.179688 0.746094 M 1.179688 0.496094 C 1.128906 0.496094 1.074219 0.503906 1.019531 0.519531 C 0.734375 0.609375 0.578125 0.914062 0.664062 1.199219 L 5.058594 15.308594 C 5.097656 15.433594 5.210938 15.515625 5.335938 15.515625 C 5.363281 15.515625 5.394531 15.511719 5.421875 15.5 L 5.902344 15.351562 C 6.054688 15.304688 6.140625 15.140625 6.09375 14.988281 L 1.699219 0.878906 C 1.625 0.644531 1.414062 0.496094 1.179688 0.496094 Z M 1.179688 0.496094"/></g></defs><g id="surface1"><path style="stroke:none;fill-rule:nonzero;fill:url(#linear0)" d="M 3.460938 8 C 4.933594 8.378906 6.453125 8.703125 7.972656 8.644531 C 9.246094 8.59375 10.488281 8.257812 11.742188 8.035156 C 12.851562 7.835938 13.992188 7.726562 15.082031 7.972656 C 15.265625 8.015625 15.429688 7.835938 15.371094 7.652344 C 14.941406 6.296875 13.640625 2.179688 13.324219 1.175781 C 13.277344 1.03125 13.160156 0.925781 13.011719 0.886719 C 11.871094 0.585938 10.667969 0.710938 9.496094 0.921875 C 8.238281 1.144531 6.996094 1.480469 5.722656 1.53125 C 4.203125 1.589844 2.6875 1.265625 1.214844 0.886719 Z M 3.460938 8"/><use mask="url(#mask0)" xlink:href="#surface8"/><path style="stroke:none;fill-rule:nonzero;fill:#bdbdbd;fill-opacity:1" d="M 5.902344 15.351562 L 5.421875 15.5 C 5.269531 15.546875 5.109375 15.460938 5.058594 15.308594 L 0.664062 1.199219 C 0.578125 0.914062 0.734375 0.609375 1.019531 0.519531 C 1.304688 0.433594 1.609375 0.59375 1.699219 0.878906 L 6.09375 14.988281 C 6.140625 15.140625 6.054688 15.304688 5.902344 15.351562 Z M 5.902344 15.351562"/><use mask="url(#mask1)" xlink:href="#surface11"/></g></svg>

<svg xmlns="http://www.w3.org/2000/svg" xmlns:xlink="http://www.w3.org/1999/xlink" width="16pt" height="16pt" viewBox="0 0 16 16"><defs><clipPath id="b"><path d="M0 0h16v16H0z"/></clipPath><clipPath id="c"><path d="M0 0h16v16H0z"/></clipPath><mask id="e"><g filter="url(#a)"><path d="M0 0h16v16H0z" style="fill:#000;fill-opacity:.2;stroke:none"/></g></mask><mask id="g"><g filter="url(#a)"><path d="M0 0h16v16H0z" style="fill:#000;fill-opacity:.2;stroke:none"/></g></mask><g id="f" clip-path="url(#b)"><path d="M11.527 1.082c.508 0 .961.055 1.387.164.024.008.043.024.047.043l1.406 4.438.578 1.832a6.7 6.7 0 0 0-1.218-.106c-.602 0-1.25.067-2.055.211-.356.063-.715.137-1.063.207-.87.176-1.77.36-2.656.395q-.174.007-.355.007c-1.293 0-2.61-.277-3.844-.585L1.77 1.414c1.152.274 2.367.5 3.582.5q.193-.001.382-.008c.95-.039 1.88-.226 2.778-.41.343-.07.699-.144 1.047-.207.804-.144 1.41-.207 1.968-.207m0-.375c-.675 0-1.359.09-2.035.215-1.254.223-2.496.558-3.77.61-.124.003-.25.007-.37.007-1.399 0-2.79-.305-4.141-.652L3.46 8c1.352.348 2.742.652 4.137.652q.189-.001.37-.007c1.274-.051 2.516-.387 3.774-.61.656-.117 1.324-.207 1.985-.207.457 0 .91.043 1.351.145q.03.005.059.004a.25.25 0 0 0 .234-.325c-.43-1.355-1.734-5.472-2.05-6.476a.44.44 0 0 0-.31-.29 5.8 5.8 0 0 0-1.484-.179m0 0" style="stroke:none;fill-rule:nonzero;fill:#424242;fill-opacity:1"/></g><g id="h" clip-path="url(#c)"><path d="M1.18.746c.129 0 .242.082.277.207l4.398 14.11a.04.04 0 0 1-.003.03c-.004.005-.012.016-.024.02l-.48.149c-.004 0-.008.004-.012.004-.016 0-.035-.012-.04-.032L.903 1.125a.3.3 0 0 1 .02-.223.28.28 0 0 1 .172-.14.2.2 0 0 1 .086-.016m0-.25a.6.6 0 0 0-.16.024.546.546 0 0 0-.356.68L5.06 15.308c.039.125.152.207.277.207a.2.2 0 0 0 .086-.016l.48-.148a.29.29 0 0 0 .192-.364L1.699.878a.54.54 0 0 0-.52-.382m0 0" style="stroke:none;fill-rule:nonzero;fill:#424242;fill-opacity:1"/></g><linearGradient id="d" x1="4.441" x2="168.77" y1="6.477" y2="84.143" gradientTransform="scale(.125)" gradientUnits="userSpaceOnUse"><stop offset="0" style="stop-color:#fafafa;stop-opacity:1"/><stop offset=".999" style="stop-color:#eee;stop-opacity:1"/></linearGradient><filter id="a" width="100%" height="100%" x="0%" y="0%" filterUnits="objectBoundingBox"><feColorMatrix in="SourceGraphic" values="0 0 0 0 1 0 0 0 0 1 0 0 0 0 1 0 0 0 1 0"/></filter></defs><path d="M3.46 8c1.474.379 2.993.703 4.513.645 1.273-.051 2.515-.387 3.77-.61 1.109-.2 2.25-.308 3.339-.062.184.043.348-.137.29-.32-.43-1.356-1.731-5.473-2.048-6.477a.44.44 0 0 0-.312-.29c-1.14-.3-2.344-.175-3.516.036-1.258.223-2.5.558-3.773.61-1.52.058-3.035-.266-4.508-.645Zm0 0" style="stroke:none;fill-rule:nonzero;fill:url(#d)"/><use xlink:href="#f" mask="url(#e)"/><path d="m5.902 15.352-.48.148a.293.293 0 0 1-.363-.191L.664 1.199A.546.546 0 0 1 1.02.52a.55.55 0 0 1 .68.36l4.394 14.11a.29.29 0 0 1-.192.363m0 0" style="stroke:none;fill-rule:nonzero;fill:#bdbdbd;fill-opacity:1"/><use xlink:href="#h" mask="url(#g)"/></svg>
